Numix-Circle/48x48/apps/sauerbraten.svg

<?xml version="1.0" encoding="UTF-8" standalone="no"?>
<svg
   xmlns:dc="http://purl.org/dc/elements/1.1/"
   xmlns:cc="http://creativecommons.org/ns#"
   xmlns:rdf="http://www.w3.org/1999/02/22-rdf-syntax-ns#"
   xmlns:svg="http://www.w3.org/2000/svg"
   xmlns="http://www.w3.org/2000/svg"
   xmlns:sodipodi="http://sodipodi.sourceforge.net/DTD/sodipodi-0.dtd"
   xmlns:inkscape="http://www.inkscape.org/namespaces/inkscape"
   viewBox="0 0 48 48"
   id="svg2"
   version="1.1"
   inkscape:version="0.48.4 r9939"
   width="100%"
   height="100%"
   sodipodi:docname="sauerbraten.svg">
  <metadata
     id="metadata107">
    <rdf:RDF>
      <cc:Work
         rdf:about="">
        <dc:format>image/svg+xml</dc:format>
        <dc:type
           rdf:resource="http://purl.org/dc/dcmitype/StillImage" />
      </cc:Work>
    </rdf:RDF>
  </metadata>
  <sodipodi:namedview
     pagecolor="#ffffff"
     bordercolor="#666666"
     borderopacity="1"
     objecttolerance="10"
     gridtolerance="10"
     guidetolerance="10"
     inkscape:pageopacity="0"
     inkscape:pageshadow="2"
     inkscape:window-width="640"
     inkscape:window-height="480"
     id="namedview105"
     showgrid="false"
     inkscape:zoom="4.9166667"
     inkscape:cx="24"
     inkscape:cy="22.372881"
     inkscape:window-x="370"
     inkscape:window-y="112"
     inkscape:window-maximized="0"
     inkscape:current-layer="svg2" />
  <defs
     id="defs4">
    <linearGradient
       id="1"
       gradientUnits="userSpaceOnUse"
       y1="15"
       x2="0"
       y2="11"
       gradientTransform="matrix(15.333333,0,0,11.5,414.99999,-125.5)">
      <stop
         id="stop7" />
      <stop
         offset="1"
         stop-opacity="0"
         id="stop9" />
    </linearGradient>
    <clipPath
       id="clipPath-091101305">
      <g
         transform="translate(0,-1004.3622)"
         id="g12">
        <path
           d="m -24 13 c 0 1.105 -0.672 2 -1.5 2 -0.828 0 -1.5 -0.895 -1.5 -2 0 -1.105 0.672 -2 1.5 -2 0.828 0 1.5 0.895 1.5 2 z"
           transform="matrix(15.333333,0,0,11.5,414.99999,878.8622)"
           fill="#1890d0"
           id="path14" />
      </g>
    </clipPath>
    <clipPath
       id="clipPath-099684571">
      <g
         transform="translate(0,-1004.3622)"
         id="g17">
        <path
           d="m -24 13 c 0 1.105 -0.672 2 -1.5 2 -0.828 0 -1.5 -0.895 -1.5 -2 0 -1.105 0.672 -2 1.5 -2 0.828 0 1.5 0.895 1.5 2 z"
           transform="matrix(15.333333,0,0,11.5,414.99999,878.8622)"
           fill="#1890d0"
           id="path19" />
      </g>
    </clipPath>
    <linearGradient
       id="1-1"
       gradientUnits="userSpaceOnUse"
       y1="15"
       x2="0"
       y2="11"
       gradientTransform="matrix(15.333333,0,0,11.5,414.99999,-125.5)">
      <stop
         id="stop7-2" />
      <stop
         offset="1"
         stop-opacity="0"
         id="stop9-0" />
    </linearGradient>
  </defs>
  <g
     transform="translate(9.9999994e-7,0.0022)"
     id="g21">
    <g
       transform="translate(0,-1004.3622)"
       id="g23">
      <path
         style="opacity:0.05"
         inkscape:connector-curvature="0"
         d="m 25,1006.36 c -12.703,0 -23,10.298 -23,23 0,6.367 2.601,12.12 6.781,16.281 4.085,3.712 9.514,5.969 15.469,5.969 12.703,0 23,-10.297 23,-23 0,-5.954 -2.256,-11.384 -5.969,-15.469 -4.165,-4.181 -9.914,-6.781 -16.281,-6.781 z m 16.281,6.781 c 3.854,4.113 6.219,9.637 6.219,15.719 0,12.703 -10.297,23 -23,23 -6.081,0 -11.606,-2.364 -15.719,-6.219 4.16,4.144 9.883,6.719 16.219,6.719 12.703,0 23,-10.297 23,-23 0,-6.335 -2.575,-12.06 -6.719,-16.219 z"
         id="path25" />
      <path
         style="opacity:0.1"
         inkscape:connector-curvature="0"
         d="m 41.28,1013.14 c 3.712,4.085 5.969,9.514 5.969,15.469 0,12.703 -10.297,23 -23,23 -5.954,0 -11.384,-2.256 -15.469,-5.969 4.113,3.854 9.637,6.219 15.719,6.219 12.703,0 23,-10.297 23,-23 0,-6.081 -2.364,-11.606 -6.219,-15.719 z"
         id="path27" />
      <path
         style="opacity:0.2"
         inkscape:connector-curvature="0"
         transform="matrix(15.333333,0,0,11.5,415.24999,879.11222)"
         d="m -24,13 a 1.5,2 0 1 1 -3,0 1.5,2 0 1 1 3,0 z"
         id="path29" />
    </g>
  </g>
  <g
     transform="translate(9.9999994e-7,0.0022)"
     id="g31">
    <g
       transform="translate(0,-1004.3622)"
       id="g33">
      <path
         style="fill:#eeeeee"
         inkscape:connector-curvature="0"
         d="m -24,13 c 0,1.105 -0.672,2 -1.5,2 -0.828,0 -1.5,-0.895 -1.5,-2 0,-1.105 0.672,-2 1.5,-2 0.828,0 1.5,0.895 1.5,2 z"
         transform="matrix(15.333333,0,0,11.5,414.99999,878.8622)"
         id="path35" />
    </g>
  </g>
  <g
     transform="translate(9.9999994e-7,0.0022)"
     id="g37">
    <path
       style="opacity:0.15;fill:url(#1-1)"
       inkscape:connector-curvature="0"
       d="M 47,24 C 47,36.703 36.703,47 24,47 11.297,47 1,36.703 1,24 1,11.297 11.297,1 24,1 36.703,1 47,11.297 47,24 z"
       id="path39" />
  </g>
  <g
     transform="translate(9.9999994e-7,0.0022)"
     id="g69">
    <path
       style="opacity:0.1"
       inkscape:connector-curvature="0"
       d="m 40.03,7.531 c 3.712,4.084 5.969,9.514 5.969,15.469 0,12.703 -10.297,23 -23,23 C 17.045,46 11.615,43.744 7.53,40.031 11.708,44.322 17.54,47 23.999,47 c 12.703,0 23,-10.298 23,-23 0,-6.462 -2.677,-12.291 -6.969,-16.469 z"
       id="path71-9" />
  </g>
  <g
     id="g41">
    <g
       clip-path="url(#clipPath-091101305)"
       id="g43">
      <g
         transform="translate(0,1)"
         id="g45">
        <g
           opacity="0.1"
           id="g47">
          <g
             id="g49">
            <path
               d="m 24 36 l 0 -12 l -10.406 -6 l 0 12 m 10.406 6"
               fill="#000"
               stroke="none"
               fill-rule="nonzero"
               fill-opacity="1"
               id="path51" />
            <path
               d="m 34.406 18 l -10.406 6 l 0 12 l 10.406 -6 m 0 -12"
               fill="#000"
               stroke="none"
               fill-rule="nonzero"
               fill-opacity="1"
               id="path53" />
            <path
               d="m 24 12 l -10.406 6 l 10.406 6 l 10.406 -6 m -10.406 -6"
               fill="#000"
               stroke="none"
               fill-rule="nonzero"
               fill-opacity="1"
               id="path55" />
            <path
               d="m 24 16 l 0 8 l -6.938 4 l 0 -8 m 6.938 -4"
               fill="#000"
               stroke="none"
               fill-rule="nonzero"
               fill-opacity="1"
               id="path57" />
            <path
               d="m 30.938 28 l -6.938 -4 l 0 -8 l 6.938 4 m 0 8"
               fill="#000"
               stroke="none"
               fill-rule="nonzero"
               fill-opacity="1"
               id="path59" />
            <path
               d="m 24 32 l -6.938 -4 l 6.938 -4 l 6.938 4 m -6.938 4"
               fill="#000"
               stroke="none"
               fill-rule="nonzero"
               fill-opacity="1"
               id="path61" />
            <path
               d="m 24 30 l 0 -6 l -5.188 -3 l 0 6 m 5.188 3"
               fill="#000"
               stroke="none"
               fill-rule="nonzero"
               fill-opacity="1"
               id="path63" />
            <path
               d="m 26 22.848 l -2 1.156 l 0 6 l 5.188 -3 l 0 -1.844 l -3.188 1.844 m 0 -4.156"
               fill="#000"
               stroke="none"
               fill-rule="nonzero"
               fill-opacity="1"
               id="path65" />
            <path
               d="m 26 23.316 l 0 3.688 l 3.188 -1.844 m -3.188 -1.844"
               fill="#000"
               stroke="none"
               fill-rule="nonzero"
               fill-opacity="1"
               id="path67" />
            <path
               d="m 25.594 22.629 l 0 -3.691 l -3.188 1.848 m 3.188 1.844"
               fill="#000"
               stroke="none"
               fill-rule="nonzero"
               fill-opacity="1"
               id="path69" />
            <path
               d="m 26.01 22.848 l -2 1.156 l -5.195 -3 l 5.191 -2.996 l 1.598 0.922 l -3.188 1.84 l 3.598 2.074 m -0.004 0.004"
               fill="#000"
               stroke="none"
               fill-rule="nonzero"
               fill-opacity="1"
               id="path71" />
          </g>
        </g>
      </g>
    </g>
  </g>
  <g
     id="g73">
    <g
       clip-path="url(#clipPath-099684571)"
       id="g75">
      <g
         id="g77">
        <path
           d="m 24 36 l 0 -12 l -10.406 -6 l 0 12 m 10.406 6"
           fill="#a92819"
           stroke="none"
           fill-rule="nonzero"
           fill-opacity="1"
           id="path79" />
        <path
           d="m 34.406 18 l -10.406 6 l 0 12 l 10.406 -6 m 0 -12"
           fill="#dd3d28"
           stroke="none"
           fill-rule="nonzero"
           fill-opacity="1"
           id="path81" />
        <path
           d="m 24 12 l -10.406 6 l 10.406 6 l 10.406 -6 m -10.406 -6"
           fill="#e58075"
           stroke="none"
           fill-rule="nonzero"
           fill-opacity="1"
           id="path83" />
        <path
           d="m 24 16 l 0 8 l -6.938 4 l 0 -8 m 6.938 -4"
           fill="#dd3d28"
           stroke="none"
           fill-rule="nonzero"
           fill-opacity="1"
           id="path85" />
        <path
           d="m 30.938 28 l -6.938 -4 l 0 -8 l 6.938 4 m 0 8"
           fill="#a92819"
           stroke="none"
           fill-rule="nonzero"
           fill-opacity="1"
           id="path87" />
        <path
           d="m 24 32 l -6.938 -4 l 6.938 -4 l 6.938 4 m -6.938 4"
           fill="#d64936"
           stroke="none"
           fill-rule="nonzero"
           fill-opacity="1"
           id="path89" />
        <path
           d="m 24 30 l 0 -6 l -5.188 -3 l 0 6 m 5.188 3"
           fill="#a92819"
           stroke="none"
           fill-rule="nonzero"
           fill-opacity="1"
           id="path91" />
        <path
           d="m 26 22.848 l -2 1.156 l 0 6 l 5.188 -3 l 0 -1.844 l -3.188 1.844 m 0 -4.156"
           fill="#dd3d28"
           stroke="none"
           fill-rule="nonzero"
           fill-opacity="1"
           id="path93" />
        <path
           d="m 26 23.316 l 0 3.688 l 3.188 -1.844 m -3.188 -1.844"
           fill="#d64936"
           stroke="none"
           fill-rule="nonzero"
           fill-opacity="1"
           id="path95" />
        <path
           d="m 25.594 22.629 l 0 -3.691 l -3.188 1.848 m 3.188 1.844"
           fill="#dd3d28"
           stroke="none"
           fill-rule="nonzero"
           fill-opacity="1"
           id="path97" />
        <path
           d="m 26.01 22.848 l -2 1.156 l -5.195 -3 l 5.191 -2.996 l 1.598 0.922 l -3.188 1.84 l 3.598 2.074 m -0.004 0.004"
           fill="#e58075"
           stroke="none"
           fill-rule="nonzero"
           fill-opacity="1"
           id="path99" />
      </g>
    </g>
  </g>
</svg>

<svg viewBox="0 0 48 48"><defs><linearGradient id="linearGradient3764" x1="1" x2="47" gradientUnits="userSpaceOnUse" gradientTransform="matrix(0,-1,1,0,-1.5e-6,47.999998)"><stop stop-color="#e4e4e4" stop-opacity="1"/><stop offset="1" stop-color="#eee" stop-opacity="1"/></linearGradient><clipPath id="clipPath-655988066"><g transform="translate(0,-1004.3622)"><path d="m -24 13 c 0 1.105 -0.672 2 -1.5 2 -0.828 0 -1.5 -0.895 -1.5 -2 0 -1.105 0.672 -2 1.5 -2 0.828 0 1.5 0.895 1.5 2 z" transform="matrix(15.333333,0,0,11.5,414.99999,878.8622)" fill="#1890d0"/></g></clipPath><clipPath id="clipPath-663618748"><g transform="translate(0,-1004.3622)"><path d="m -24 13 c 0 1.105 -0.672 2 -1.5 2 -0.828 0 -1.5 -0.895 -1.5 -2 0 -1.105 0.672 -2 1.5 -2 0.828 0 1.5 0.895 1.5 2 z" transform="matrix(15.333333,0,0,11.5,414.99999,878.8622)" fill="#1890d0"/></g></clipPath></defs><g><g transform="translate(0,-1004.3622)"><path d="m 25 1006.36 c -12.703 0 -23 10.298 -23 23 0 6.367 2.601 12.12 6.781 16.281 4.085 3.712 9.514 5.969 15.469 5.969 12.703 0 23 -10.297 23 -23 0 -5.954 -2.256 -11.384 -5.969 -15.469 -4.165 -4.181 -9.914 -6.781 -16.281 -6.781 z m 16.281 6.781 c 3.854 4.113 6.219 9.637 6.219 15.719 0 12.703 -10.297 23 -23 23 -6.081 0 -11.606 -2.364 -15.719 -6.219 4.16 4.144 9.883 6.719 16.219 6.719 12.703 0 23 -10.297 23 -23 0 -6.335 -2.575 -12.06 -6.719 -16.219 z" opacity="0.05"/><path d="m 41.28 1013.14 c 3.712 4.085 5.969 9.514 5.969 15.469 0 12.703 -10.297 23 -23 23 -5.954 0 -11.384 -2.256 -15.469 -5.969 4.113 3.854 9.637 6.219 15.719 6.219 12.703 0 23 -10.297 23 -23 0 -6.081 -2.364 -11.606 -6.219 -15.719 z" opacity="0.1"/><path transform="matrix(15.333333,0,0,11.5,415.24999,879.11222)" d="m -24 13 a 1.5 2 0 1 1 -3 0 1.5 2 0 1 1 3 0 z" opacity="0.2"/></g></g><g><path d="m 24 1 c 12.703 0 23 10.297 23 23 c 0 12.703 -10.297 23 -23 23 -12.703 0 -23 -10.297 -23 -23 0 -12.703 10.297 -23 23 -23 z" fill="url(#linearGradient3764)" fill-opacity="1"/></g><g/><g><g clip-path="url(#clipPath-655988066)"><g transform="translate(0,1)"><g opacity="0.1"><!-- color: #eeeeee --><g><path d="m 24 36 l 0 -12 l -10.406 -6 l 0 12 m 10.406 6" fill="#000" stroke="none" fill-rule="nonzero" fill-opacity="1"/><path d="m 34.406 18 l -10.406 6 l 0 12 l 10.406 -6 m 0 -12" fill="#000" stroke="none" fill-rule="nonzero" fill-opacity="1"/><path d="M 24 12 L 13.59375 18 L 24 24 L 34.40625 18 M 24 12 " fill="#000" stroke="none" fill-rule="nonzero" fill-opacity="1"/><path d="m 24 16 l 0 8 l -6.938 4 l 0 -8 m 6.938 -4" fill="#000" stroke="none" fill-rule="nonzero" fill-opacity="1"/><path d="m 30.938 28 l -6.938 -4 l 0 -8 l 6.938 4 m 0 8" fill="#000" stroke="none" fill-rule="nonzero" fill-opacity="1"/><path d="M 24 32 L 17.0625 28 L 24 24 L 30.9375 28 M 24 32 " fill="#000" stroke="none" fill-rule="nonzero" fill-opacity="1"/><path d="m 24 30 l 0 -6 l -5.188 -3 l 0 6 m 5.188 3" fill="#000" stroke="none" fill-rule="nonzero" fill-opacity="1"/><path d="m 26 22.848 l -2 1.156 l 0 6 l 5.188 -3 l 0 -1.844 l -3.188 1.844 m 0 -4.156" fill="#000" stroke="none" fill-rule="nonzero" fill-opacity="1"/><path d="m 26 23.316 l 0 3.688 l 3.188 -1.844 m -3.188 -1.844" fill="#000" stroke="none" fill-rule="nonzero" fill-opacity="1"/><path d="m 25.594 22.629 l 0 -3.691 l -3.188 1.848 m 3.188 1.844" fill="#000" stroke="none" fill-rule="nonzero" fill-opacity="1"/><path d="m 26.01 22.848 l -2 1.156 l -5.195 -3 l 5.191 -2.996 l 1.598 0.922 l -3.191 1.84 l 3.602 2.074 m -0.004 0.004" fill="#000" stroke="none" fill-rule="nonzero" fill-opacity="1"/></g></g></g></g></g><g><g clip-path="url(#clipPath-663618748)"><!-- color: #eeeeee --><g><path d="m 24 36 l 0 -12 l -10.406 -6 l 0 12 m 10.406 6" fill="#a92819" stroke="none" fill-rule="nonzero" fill-opacity="1"/><path d="m 34.406 18 l -10.406 6 l 0 12 l 10.406 -6 m 0 -12" fill="#dd3d28" stroke="none" fill-rule="nonzero" fill-opacity="1"/><path d="M 24 12 L 13.59375 18 L 24 24 L 34.40625 18 M 24 12 " fill="#e57f75" stroke="none" fill-rule="nonzero" fill-opacity="1"/><path d="m 24 16 l 0 8 l -6.938 4 l 0 -8 m 6.938 -4" fill="#dd3d28" stroke="none" fill-rule="nonzero" fill-opacity="1"/><path d="m 30.938 28 l -6.938 -4 l 0 -8 l 6.938 4 m 0 8" fill="#a92819" stroke="none" fill-rule="nonzero" fill-opacity="1"/><path d="M 24 32 L 17.0625 28 L 24 24 L 30.9375 28 M 24 32 " fill="#d64936" stroke="none" fill-rule="nonzero" fill-opacity="1"/><path d="m 24 30 l 0 -6 l -5.188 -3 l 0 6 m 5.188 3" fill="#a92819" stroke="none" fill-rule="nonzero" fill-opacity="1"/><path d="m 26 22.848 l -2 1.156 l 0 6 l 5.188 -3 l 0 -1.844 l -3.188 1.844 m 0 -4.156" fill="#dd3d28" stroke="none" fill-rule="nonzero" fill-opacity="1"/><path d="m 26 23.316 l 0 3.688 l 3.188 -1.844 m -3.188 -1.844" fill="#d64936" stroke="none" fill-rule="nonzero" fill-opacity="1"/><path d="m 25.594 22.629 l 0 -3.691 l -3.188 1.848 m 3.188 1.844" fill="#dd3d28" stroke="none" fill-rule="nonzero" fill-opacity="1"/><path d="m 26.01 22.848 l -2 1.156 l -5.195 -3 l 5.191 -2.996 l 1.598 0.922 l -3.191 1.84 l 3.602 2.074 m -0.004 0.004" fill="#e57f75" stroke="none" fill-rule="nonzero" fill-opacity="1"/></g></g></g><g><path d="m 40.03 7.531 c 3.712 4.084 5.969 9.514 5.969 15.469 0 12.703 -10.297 23 -23 23 c -5.954 0 -11.384 -2.256 -15.469 -5.969 4.178 4.291 10.01 6.969 16.469 6.969 c 12.703 0 23 -10.298 23 -23 0 -6.462 -2.677 -12.291 -6.969 -16.469 z" opacity="0.1"/></g></svg>
